icons/svgs/lock-solid.svg

<svg width="24" height="24" viewBox="0 0 24 24" fill="none" xmlns="http://www.w3.org/2000/svg">
<path d="M8.875 7.625V9.5H15.125V7.625C15.125 5.90625 13.7188 4.5 12 4.5C10.2422 4.5 8.875 5.90625 8.875 7.625ZM6.375 9.5V7.625C6.375 4.53906 8.875 2 12 2C15.0859 2 17.625 4.53906 17.625 7.625V9.5H18.25C19.6172 9.5 20.75 10.6328 20.75 12V19.5C20.75 20.9062 19.6172 22 18.25 22H5.75C4.34375 22 3.25 20.9062 3.25 19.5V12C3.25 10.6328 4.34375 9.5 5.75 9.5H6.375Z" fill="black"/>
</svg>

<svg xmlns="http://www.w3.org/2000/svg" width="24" height="24" fill="currentColor" class="icon-lock-solid" viewBox="0 0 24 24">
  <mask id="a" width="18" height="20" x="3" y="2" maskUnits="userSpaceOnUse" style="mask-type:alpha">
    <path d="M8.875 7.625V9.5h6.25V7.625A3.134 3.134 0 0 0 12 4.5a3.11 3.11 0 0 0-3.125 3.125M6.375 9.5V7.625C6.375 4.539 8.875 2 12 2c3.086 0 5.625 2.54 5.625 5.625V9.5h.625c1.367 0 2.5 1.133 2.5 2.5v7.5c0 1.406-1.133 2.5-2.5 2.5H5.75a2.47 2.47 0 0 1-2.5-2.5V12c0-1.367 1.094-2.5 2.5-2.5z"/>
  </mask>
  <g mask="url(#a)">
    <path d="M0 0h24v24H0z"/>
  </g>
</svg>
